assets/img/braze_icons/slash-circle-01.svg

<svg fill="none" height="24" viewBox="0 0 24 24" width="24" xmlns="http://www.w3.org/2000/svg"><path clip-rule="evenodd" d="m12 1c-6.07513 0-11 4.92487-11 11 0 6.0751 4.92487 11 11 11 6.0751 0 11-4.9249 11-11 0-6.07513-4.9249-11-11-11zm-5.61769 3.9681c1.53968-1.23163 3.49268-1.9681 5.61769-1.9681 4.9706 0 9 4.02944 9 9 0 2.125-.7365 4.078-1.9681 5.6177zm-1.41421 1.41421c-1.23163 1.53968-1.9681 3.49268-1.9681 5.61769 0 4.9706 4.02944 9 9 9 2.125 0 4.078-.7365 5.6177-1.9681z" fill="#801ed7" fill-rule="evenodd"/></svg>

<svg width="24" height="24" viewBox="0 0 24 24" fill="none" xmlns="http://www.w3.org/2000/svg">
<path fill-rule="evenodd" clip-rule="evenodd" d="M12 1C5.92487 1 1 5.92487 1 12C1 18.0751 5.92487 23 12 23C18.0751 23 23 18.0751 23 12C23 5.92487 18.0751 1 12 1ZM6.38231 4.9681C7.92199 3.73647 9.87499 3 12 3C16.9706 3 21 7.02944 21 12C21 14.125 20.2635 16.078 19.0319 17.6177L6.38231 4.9681ZM4.9681 6.38231C3.73647 7.92199 3 9.87499 3 12C3 16.9706 7.02944 21 12 21C14.125 21 16.078 20.2635 17.6177 19.0319L4.9681 6.38231Z" fill="#801ED7"/>
</svg>
